img/section2-background.svg

<svg fill="none" height="844" viewBox="0 0 390 844" width="390" xmlns="http://www.w3.org/2000/svg" xmlns:xlink="http://www.w3.org/1999/xlink"><linearGradient id="a"><stop offset="0" stop-color="#ffa01d"/><stop offset=".22" stop-color="#ffa01d"/><stop offset=".44" stop-color="#32a4c9"/><stop offset=".74" stop-color="#0089c8"/><stop offset="1" stop-color="#0072b6"/></linearGradient><linearGradient id="b" gradientUnits="userSpaceOnUse" x1="91.3215" x2="725.333" xlink:href="#a" y1="-745.543" y2="-618.776"/><linearGradient id="c" gradientUnits="userSpaceOnUse" x1="373.812" x2="1031.84" xlink:href="#a" y1="-329.793" y2="464.151"/><mask id="d" height="844" maskUnits="userSpaceOnUse" width="390" x="0" y="0"><path d="m0 0h390v844h-390z" fill="url(#b)"/></mask><path d="m0 0h390v844h-390z" fill="#fff"/><path d="m0 0h390v844h-390z" fill="#ffb81d" fill-opacity=".05"/><g mask="url(#d)"><path d="m150-26.9378h403.786c2.331 0 8.611 14.7735 9.458 16.4918 6.972 14.00213 11.92 28.9249 14.695 44.3204 3.233 18.4279 3.583 39.5073-1.811 57.5387-7.079 23.7149-19.047 45.2919-24.417 69.7769s-10.437 68.635 10.041 88.478c2.006 2.092 4.58 3.552 7.405 4.199 14.37 2.705 40.038-23.164 50.296-31.165 18.006-14.034 35.483-28.73 53.497-42.765 24.721-19.252 49.612-40.992 80.153-50.268 44.545-13.538 69.288 16.577 108.525 28.971 12.753 4.036 27.277 4.354 38.965-2.162 6.893-3.833 12.388-9.789 17.035-16.165 19.187-26.289 26.337-60.3066 32.693-91.6496.778-4.0355 9.932-75.6634 9.613-75.6634h145.886c-103.03 46.8552-123.567 176.317-209.509 241.732-23.539 18.032-49.277 41.281-79.103 47.664-11.416 2.45-24.985-.179-31.404-9.937-7.724-11.733-4.367-27.315-11.804-39.593-6.823-11.251-18.185-19.501-31.326-21.367-11.844-1.687-23.92.778-35.258 4.557-35.406 11.803-63.554 36.467-90.403 61.426-20.524 19.097-36.237 42.812-63.149 53.923-9.139 3.771-19.428 5.84-28.933 3.165-39.633-11.142-19.762-87.925-10.335-114.222 8.167-22.79 19.148-44.437 27.898-67.002 3.56-9.151 6.792-18.661 7.111-28.442 1.259-38.1548-42.174-50.4012-73.05-45.6737-41.102 6.2981-59.947 53.5107-81.66 83.3927-11.509 15.846-26.034 30.674-44.716 36.544-33.579 10.552-56.069-13.809-59.838-45.269-3.287-27.665-.529-56.4497-16.646-80.8648-16.118-24.4151-40.411-43.11513-65.527-57.80305-15.768-9.27615-38.957-22.16795-58.168-22.16795z" fill="url(#c)"/></g></svg>

<svg width="390" height="844" viewBox="0 0 390 844" fill="none" xmlns="http://www.w3.org/2000/svg">
<rect width="390" height="844" fill="white"/>
<rect width="390" height="844" fill="#FFB81D" fill-opacity="0.05"/>
<mask id="mask0_434_330" style="mask-type:alpha" maskUnits="userSpaceOnUse" x="0" y="0" width="390" height="844">
<rect width="390" height="844" fill="url(#paint0_linear_434_330)"/>
</mask>
<g mask="url(#mask0_434_330)">
<path d="M150 -26.9378H553.786C556.117 -26.9378 562.397 -12.1643 563.244 -10.446C570.216 3.55613 575.164 18.4789 577.939 33.8744C581.172 52.3023 581.522 73.3817 576.128 91.4131C569.049 115.128 557.081 136.705 551.711 161.19C546.341 185.675 541.274 229.825 561.752 249.668C563.758 251.76 566.332 253.22 569.157 253.867C583.527 256.572 609.195 230.703 619.453 222.702C637.459 208.668 654.936 193.972 672.95 179.937C697.671 160.685 722.562 138.945 753.103 129.669C797.648 116.131 822.391 146.246 861.628 158.64C874.381 162.676 888.905 162.994 900.593 156.478C907.486 152.645 912.981 146.689 917.628 140.313C936.815 114.024 943.965 80.0064 950.321 48.6634C951.099 44.6279 960.253 -27 959.934 -27H1105.82C1002.79 19.8552 982.253 149.317 896.311 214.732C872.772 232.764 847.034 256.013 817.208 262.396C805.792 264.846 792.223 262.217 785.804 252.459C778.08 240.726 781.437 225.144 774 212.866C767.177 201.615 755.815 193.365 742.674 191.499C730.83 189.812 718.754 192.277 707.416 196.056C672.01 207.859 643.862 232.523 617.013 257.482C596.489 276.579 580.776 300.294 553.864 311.405C544.725 315.176 534.436 317.245 524.931 314.57C485.298 303.428 505.169 226.645 514.596 200.348C522.763 177.558 533.744 155.911 542.494 133.346C546.054 124.195 549.286 114.685 549.605 104.904C550.864 66.7492 507.431 54.5028 476.555 59.2303C435.453 65.5284 416.608 112.741 394.895 142.623C383.386 158.469 368.861 173.297 350.179 179.167C316.6 189.719 294.11 165.358 290.341 133.898C287.054 106.233 289.812 77.4483 273.695 53.0332C257.577 28.6181 233.284 9.91807 208.168 -4.76985C192.4 -14.046 169.211 -26.9378 150 -26.9378Z" fill="url(#paint1_linear_434_330)"/>
</g>
<defs>
<linearGradient id="paint0_linear_434_330" x1="91.3215" y1="-745.543" x2="725.333" y2="-618.776" gradientUnits="userSpaceOnUse">
<stop stop-color="#FFA01D"/>
<stop offset="0.22" stop-color="#FFA01D"/>
<stop offset="0.44" stop-color="#32A4C9"/>
<stop offset="0.74" stop-color="#0089C8"/>
<stop offset="1" stop-color="#0072B6"/>
</linearGradient>
<linearGradient id="paint1_linear_434_330" x1="373.812" y1="-329.793" x2="1031.84" y2="464.151" gradientUnits="userSpaceOnUse">
<stop stop-color="#FFA01D"/>
<stop offset="0.22" stop-color="#FFA01D"/>
<stop offset="0.44" stop-color="#32A4C9"/>
<stop offset="0.74" stop-color="#0089C8"/>
<stop offset="1" stop-color="#0072B6"/>
</linearGradient>
</defs>
</svg>
